icons/astro.svg

<?xml version="1.0" encoding="UTF-8"?>
<svg width="256px" height="366px" viewBox="0 0 256 366" version="1.1" xmlns="http://www.w3.org/2000/svg" xmlns:xlink="http://www.w3.org/1999/xlink" preserveAspectRatio="xMidYMid">
    <title>astro</title>
    <g>
        <path d="M182.021899,9.14729513 C185.003554,12.8489818 186.524039,17.8439599 189.565008,27.8338751 L256,246.07324 C231.437035,233.330949 204.734675,224.140955 176.574007,219.182711 L133.318122,73.008385 C132.610445,70.6165977 130.413371,68.9758488 127.919318,68.9758488 C125.41872,68.9758488 123.217965,70.625188 122.515605,73.0251566 L79.7837287,219.10908 C51.4921611,224.044826 24.6679819,233.251591 0,246.040106 L66.760821,27.7833559 C69.8111986,17.8106213 71.336592,12.8241926 74.3186562,9.1293373 C76.9509722,5.86739262 80.3752328,3.334082 84.2645972,1.77078902 C88.6701983,0 93.8845156,0 104.313559,0 L151.997135,0 C162.439677,0 167.660949,0 172.07064,1.77448285 C175.963277,3.34101561 179.389583,5.87945996 182.021899,9.14729513 Z" fill="#000000"></path>
        <path d="M189.971616,256.459332 C179.019791,265.824405 157.15991,272.211095 131.980489,272.211095 C101.075831,272.211095 75.1731874,262.589949 68.2997134,249.65049 C65.8424761,257.066381 65.2914691,265.553606 65.2914691,270.975318 C65.2914691,270.975318 63.6724005,297.597911 82.1890151,316.114934 C82.1890151,306.499925 89.9836974,298.705652 99.598298,298.705652 C116.078191,298.705652 116.059783,313.083374 116.044648,324.748195 C116.044239,325.097534 116.04383,325.444828 116.04383,325.789258 C116.04383,343.494293 126.864755,358.671732 142.253679,365.069057 C139.955158,360.341524 138.665794,355.032714 138.665794,349.422424 C138.665794,332.536332 148.579419,326.249044 160.101068,318.941555 C169.268154,313.127552 179.453806,306.668049 186.473315,293.709774 C190.13565,286.948792 192.215323,279.204833 192.215323,270.975318 C192.215323,265.914399 191.429105,261.037149 189.971616,256.459332 Z" fill="#FF5D01"></path>
    </g>
</svg>

<svg xmlns="http://www.w3.org/2000/svg" width="256" height="366" preserveAspectRatio="xMidYMid"><path d="M182.022 9.147c2.982 3.702 4.502 8.697 7.543 18.687L256 246.074a276.5 276.5 0 0 0-79.426-26.891L133.318 73.008a5.63 5.63 0 0 0-10.802.017L79.784 219.11A276.5 276.5 0 0 0 0 246.04L66.76 27.783c3.051-9.972 4.577-14.959 7.559-18.654a24.54 24.54 0 0 1 9.946-7.358C88.67 0 93.885 0 104.314 0h47.683c10.443 0 15.664 0 20.074 1.774a24.55 24.55 0 0 1 9.95 7.373"/><path fill="#FF5D01" d="M189.972 256.46c-10.952 9.364-32.812 15.751-57.992 15.751-30.904 0-56.807-9.621-63.68-22.56-2.458 7.415-3.009 15.903-3.009 21.324 0 0-1.619 26.623 16.898 45.14 0-9.615 7.795-17.41 17.41-17.41 16.48 0 16.46 14.378 16.446 26.043l-.001 1.041c0 17.705 10.82 32.883 26.21 39.28a35.7 35.7 0 0 1-3.588-15.647c0-16.886 9.913-23.173 21.435-30.48 9.167-5.814 19.353-12.274 26.372-25.232a47.6 47.6 0 0 0 5.742-22.735c0-5.06-.786-9.938-2.243-14.516"/></svg>
